modules/open-iconic/icons/layers.svg

<svg xmlns="http://www.w3.org/2000/svg" width="8" height="8" viewBox="0 0 8 8">
  <path d="M0 0v4h4v-4h-4zm5 2v3h-3v1h4v-4h-1zm2 2v3h-3v1h4v-4h-1z" />
</svg>

<svg xmlns="http://www.w3.org/2000/svg" width="8" height="8"><path d="M0 0v4h4V0H0zm5 2v3H2v1h4V2H5zm2 2v3H4v1h4V4H7z"/></svg>
